dist/images/svg/partner-2.svg

<svg width="310" height="137" viewBox="0 0 310 137" fill="none" xmlns="http://www.w3.org/2000/svg">
<g clip-path="url(#clip0_22_831)">
<path d="M299.818 0.887207H9.27273C4.15154 0.887207 0 5.03875 0 10.1599V127.614C0 132.736 4.15154 136.887 9.27273 136.887H299.818C304.939 136.887 309.091 132.736 309.091 127.614V10.1599C309.091 5.03875 304.939 0.887207 299.818 0.887207Z" fill="#F3F4FF"/>
<path d="M230.273 81.2509C248.197 81.2509 262.727 66.7205 262.727 48.7963C262.727 30.8722 248.197 16.3418 230.273 16.3418C212.348 16.3418 197.818 30.8722 197.818 48.7963C197.818 66.7205 212.348 81.2509 230.273 81.2509Z" fill="#CBDB2F"/>
<path d="M55.7445 56.5234V43.0594H63.9725V56.5234H67.6445V39.8294H52.0725V56.5234H55.7445ZM88.5638 53.6674C87.7478 53.6674 87.1729 53.0554 87.1729 52.0014V45.7794C87.1729 41.6994 84.0758 39.3874 79.4518 39.3874C77.0409 39.3874 75.0318 39.8634 73.3658 40.8154V44.0454C74.9464 43.0602 76.7733 42.5417 78.6358 42.5494C81.8998 42.5494 83.5318 43.7734 83.5318 46.1874V47.1054C82.0018 46.2554 80.1998 45.8134 78.1938 45.8134C76.3238 45.8134 74.7258 46.2894 73.4338 47.2754C72.1418 48.2274 71.4958 49.5874 71.4958 51.3554C71.4958 53.0894 72.0738 54.4834 73.2638 55.4694C74.4538 56.4554 75.9529 56.9654 77.7518 56.9654C80.3358 56.9654 82.3758 56.1154 83.9058 54.3814C84.3478 55.9794 85.5378 56.7614 87.4078 56.7614C88.3258 56.7614 89.0398 56.5914 89.5498 56.2174V53.4294C89.2483 53.5955 88.9078 53.6777 88.5638 53.6674ZM83.5318 51.7974C82.2732 53.0699 80.5614 53.7913 78.7718 53.8034C76.6298 53.8034 75.1678 52.9194 75.1678 51.1514C75.1678 49.5194 76.6298 48.5674 79.0778 48.5674C80.6418 48.5674 82.1378 48.9754 83.5318 49.7574V51.7974ZM102.801 39.3874C100.217 39.3874 98.2445 40.3054 96.8505 42.1074V39.8294H93.1785V63.3235H96.8505V54.2454C98.2414 56.0474 100.217 56.9654 102.801 56.9654C105.147 56.9654 107.085 56.1154 108.611 54.4154C110.145 52.7154 110.893 50.6414 110.893 48.1934C110.893 45.7114 110.145 43.6374 108.615 41.9374C107.085 40.2374 105.147 39.3874 102.801 39.3874ZM101.811 42.6174C103.345 42.6174 104.637 43.1614 105.657 44.2494C106.677 45.3034 107.187 46.6294 107.187 48.1934C107.187 49.7234 106.677 51.0494 105.657 52.1374C104.637 53.1914 103.345 53.7354 101.815 53.7354C100.8 53.7244 99.8058 53.445 98.9339 52.9254C98.062 52.4059 97.3432 51.6648 96.8505 50.7774V45.6094C97.3301 44.7085 98.045 43.9545 98.9191 43.4276C99.7932 42.9007 100.791 42.6207 101.811 42.6174ZM121.841 56.5234V43.0594H127.451V39.8294H112.521V43.0594H118.169V56.5234H121.841ZM134.47 56.5234V49.5874H142.936V56.5234H146.608V39.8294H142.936V46.3574H134.467V39.8294H130.798V56.5234H134.47ZM150.657 48.1594C150.657 50.7774 151.541 52.8854 153.309 54.5174C155.111 56.1494 157.287 56.9654 159.871 56.9654C162.455 56.9654 164.495 56.4214 166.025 55.3334V52.2394C164.406 53.2215 162.547 53.739 160.653 53.7354C157.253 53.7354 154.805 52.0694 154.363 49.2474H167.147V48.2954C167.147 45.2694 166.096 42.5154 163.611 40.7474C162.387 39.8294 160.925 39.3874 159.225 39.3874C156.675 39.3874 154.635 40.2374 153.037 41.9034C151.439 43.5694 150.657 45.6774 150.657 48.1594ZM154.397 46.4594C154.635 44.2834 156.369 42.4814 159.055 42.4814C160.415 42.4814 161.469 42.8894 162.251 43.7054C163.033 44.5214 163.407 45.4394 163.441 46.4594H154.397ZM180.926 39.3874C178.342 39.3874 176.37 40.3054 174.976 42.1074V39.8294H171.304V63.3235H174.976V54.2454C176.37 56.0474 178.345 56.9654 180.926 56.9654C183.275 56.9654 185.21 56.1154 186.74 54.4154C188.27 52.7154 189.018 50.6414 189.018 48.1934C189.018 45.7114 188.27 43.6374 186.74 41.9374C185.21 40.2374 183.269 39.3874 180.926 39.3874ZM179.94 42.6174C181.47 42.6174 182.762 43.1614 183.782 44.2494C184.802 45.3034 185.312 46.6294 185.312 48.1934C185.312 49.7234 184.802 51.0494 183.782 52.1374C182.762 53.1914 181.47 53.7354 179.94 53.7354C178.925 53.7244 177.932 53.445 177.06 52.9254C176.188 52.4059 175.469 51.6648 174.976 50.7774V45.6094C175.456 44.7085 176.171 43.9545 177.045 43.4276C177.919 42.9007 178.92 42.6207 179.94 42.6174ZM216.289 56.5234V50.0696H219.553C221.482 50.0696 223.015 49.5751 224.153 48.5613C225.29 47.5474 225.859 46.2369 225.859 44.6296C225.859 43.0224 225.29 41.7365 224.153 40.7227C223.015 39.7089 221.482 39.2144 219.553 39.2144H211.839V56.5234H216.289ZM216.289 42.9729H219.232C220.543 42.9729 221.359 43.5911 221.359 44.6791C221.359 45.7671 220.518 46.41 219.232 46.41H216.289V42.9729ZM232.078 56.5234V49.2289C232.572 48.3387 233.784 47.7205 235.268 47.7205C235.737 47.7205 236.232 47.7947 236.751 47.9184V43.69C236.572 43.6565 236.39 43.64 236.207 43.6405C235.317 43.6405 234.476 43.8878 233.685 44.4071C232.919 44.9016 232.375 45.4456 232.078 46.0144V43.962H227.701V56.5234H232.078ZM247.953 50.2427C247.953 51.8994 246.794 53.1111 245.186 53.1111C243.579 53.1111 242.417 51.8994 242.417 50.2427C242.417 48.6354 243.579 47.3744 245.186 47.3744C246.794 47.3744 247.953 48.6354 247.953 50.2427ZM250.255 54.9656C251.591 53.7045 252.258 52.122 252.258 50.2427C252.258 48.3634 251.591 46.8056 250.255 45.5445C248.92 44.2834 247.239 43.6405 245.186 43.6405C243.134 43.6405 241.453 44.2834 240.117 45.5445C239.468 46.14 238.954 46.8671 238.608 47.6774C238.263 48.4876 238.095 49.3622 238.114 50.2427C238.114 52.122 238.782 53.7045 240.117 54.9656C241.453 56.2267 243.134 56.8449 245.186 56.8449C247.239 56.8449 248.92 56.2267 250.255 54.9656Z" fill="#04133A"/>
<path fill-rule="evenodd" clip-rule="evenodd" d="M98.2261 81.251L89.6365 87.2659V92.0939L98.2261 86.0233L106.803 92.0939V87.2659L98.2292 81.251H98.2261Z" fill="#ED1944"/>
<path fill-rule="evenodd" clip-rule="evenodd" d="M183.377 99.8739C182.203 99.8739 181.096 100.143 180.123 100.637L178.954 93.4201H176.519V113.038C176.638 113.226 176.734 113.427 176.806 113.638C176.896 113.921 177.041 114.184 177.233 114.41C178.858 115.976 181.028 116.85 183.285 116.85C185.542 116.85 187.711 115.976 189.337 114.41C192.675 111.156 192.675 105.564 189.337 102.31C187.738 100.76 185.603 99.8877 183.377 99.8739ZM98.2414 99.8615C102.145 99.8615 104.964 102.946 104.964 106.754V116.852H101.546V107.363C101.546 105.252 99.7837 103.53 97.6108 103.53C96.6063 103.53 95.6635 103.901 94.9372 104.557V116.852H91.5217V93.417H94.0099L94.9897 100.637C95.9976 100.127 97.1118 99.8594 98.2414 99.8615ZM145.229 101.803L142.145 104.031V109.808C142.145 111.508 143.517 113.387 145.26 113.387V116.809H145.007C141.329 116.809 138.34 113.39 138.34 109.808V97.1601H140.729L141.443 99.9326H144.954L145.229 101.803ZM207.091 99.9697H203.546V111.86C202.822 112.519 201.935 113.146 200.928 113.146C198.758 113.146 197.021 111.168 197.021 109.051V99.9697H193.71V109.663C193.71 113.471 196.399 116.818 200.3 116.818C201.484 116.818 202.541 116.268 203.521 115.761L203.546 115.749V115.86C203.546 118.444 201.456 120.54 198.807 120.54H197.552V123.971H199.067C203.651 123.971 207.091 120.336 207.091 115.863V99.9697ZM170.896 112.735C170.443 113.185 170.186 113.796 170.182 114.435C170.182 115.072 170.445 115.693 170.899 116.144C171.372 116.59 171.997 116.837 172.646 116.837C173.295 116.837 173.92 116.59 174.392 116.144C174.618 115.921 174.799 115.656 174.922 115.363C175.046 115.07 175.11 114.756 175.112 114.438C175.108 113.799 174.85 113.187 174.395 112.738C173.926 112.285 173.299 112.032 172.647 112.032C171.995 112.032 171.368 112.285 170.899 112.738L170.896 112.735ZM131.354 109.595C132.359 109.595 133.169 110.42 133.169 111.44C133.169 112.46 132.359 113.285 131.354 113.285H125.485V116.852H131.611C134.55 116.852 136.933 114.429 136.933 111.44C136.933 108.451 134.553 106.028 131.611 106.028H129.747C129.585 106.027 129.424 105.993 129.275 105.93C129.125 105.867 128.989 105.775 128.875 105.659C128.762 105.544 128.671 105.407 128.61 105.256C128.549 105.106 128.519 104.945 128.52 104.782C128.518 104.62 128.549 104.458 128.61 104.307C128.67 104.157 128.76 104.019 128.874 103.903C128.988 103.787 129.124 103.695 129.274 103.631C129.424 103.568 129.584 103.535 129.747 103.534H134.677V99.9697H129.49C126.876 99.9697 124.755 102.124 124.755 104.782C124.755 107.44 126.876 109.595 129.49 109.595H131.354ZM115.393 116.865C113.131 116.87 110.959 115.979 109.354 114.385C107.749 112.792 106.842 110.626 106.831 108.365C106.84 106.102 107.747 103.936 109.352 102.341C110.958 100.747 113.13 99.855 115.393 99.8615C117.654 99.8566 119.824 100.749 121.428 102.342C123.032 103.936 123.939 106.101 123.948 108.362C123.938 110.622 123.031 112.786 121.427 114.38C119.824 115.973 117.654 116.869 115.393 116.865ZM110.596 108.365C110.596 105.734 112.747 103.598 115.393 103.598C118.036 103.598 120.187 105.731 120.187 108.362C120.187 110.989 118.036 113.125 115.393 113.125C114.126 113.128 112.91 112.629 112.01 111.736C111.111 110.844 110.602 109.631 110.596 108.365ZM162.616 106.612C162.616 103.027 165.608 100.109 169.283 100.109H169.821V103.534H169.533C167.79 103.534 166.04 104.912 166.04 106.612V116.831H162.613L162.616 106.612ZM160.981 102.965C160.169 101.991 159.153 101.208 158.004 100.671C156.856 100.135 155.603 99.8586 154.335 99.8615C149.615 99.8615 145.773 103.602 145.773 108.207C145.773 112.812 149.615 116.818 154.335 116.818C156.607 116.818 158.675 115.947 160.208 114.531L157.55 111.882C156.697 112.636 155.572 113.097 154.335 113.097C151.689 113.097 149.538 110.788 149.538 108.21C149.538 105.626 151.689 103.53 154.335 103.53C155.436 103.53 156.446 103.895 157.256 104.507L153.64 107.459V111.684L160.981 106.09V102.965ZM180.073 104.751V111.87C181.952 113.536 184.864 113.486 186.678 111.715C188.552 109.892 188.552 106.73 186.678 104.903C185.797 104.054 184.629 103.568 183.406 103.539C182.183 103.51 180.993 103.945 180.073 104.751Z" fill="#04133A"/>
</g>
<defs>
<clipPath id="clip0_22_831">
<rect width="309.091" height="136" fill="white" transform="translate(0 0.887207)"/>
</clipPath>
</defs>
</svg>

<svg width="310" height="137" fill="none" xmlns="http://www.w3.org/2000/svg"><g clip-path="url(#a)"><path d="M299.818.887H9.273A9.273 9.273 0 0 0 0 10.16v117.454a9.272 9.272 0 0 0 9.273 9.273h290.545a9.273 9.273 0 0 0 9.273-9.273V10.16a9.273 9.273 0 0 0-9.273-9.273Z" fill="#F3F4FF"/><path d="M230.273 81.25c17.924 0 32.454-14.53 32.454-32.454s-14.53-32.454-32.454-32.454c-17.925 0-32.455 14.53-32.455 32.454 0 17.925 14.53 32.455 32.455 32.455Z" fill="#CBDB2F"/><path d="M55.745 56.523V43.06h8.227v13.464h3.672V39.83H52.072v16.694h3.672Zm32.819-2.856c-.816 0-1.391-.612-1.391-1.666V45.78c0-4.08-3.097-6.392-7.721-6.392-2.411 0-4.42.476-6.086 1.428v3.23a9.886 9.886 0 0 1 5.27-1.496c3.264 0 4.896 1.224 4.896 3.638v.918c-1.53-.85-3.332-1.292-5.338-1.292-1.87 0-3.468.476-4.76 1.462-1.292.952-1.938 2.312-1.938 4.08 0 1.734.578 3.128 1.768 4.114 1.19.986 2.689 1.496 4.488 1.496 2.584 0 4.624-.85 6.154-2.584.442 1.598 1.632 2.38 3.502 2.38.918 0 1.632-.17 2.142-.544V53.43a1.924 1.924 0 0 1-.986.238Zm-5.032-1.87a6.76 6.76 0 0 1-4.76 2.006c-2.142 0-3.604-.884-3.604-2.652 0-1.632 1.462-2.584 3.91-2.584 1.564 0 3.06.408 4.454 1.19v2.04Zm19.269-12.41c-2.584 0-4.556.918-5.95 2.72V39.83h-3.672v23.495h3.671v-9.079c1.391 1.802 3.367 2.72 5.951 2.72 2.346 0 4.284-.85 5.81-2.55 1.534-1.7 2.282-3.774 2.282-6.222 0-2.482-.748-4.556-2.278-6.256-1.53-1.7-3.468-2.55-5.814-2.55Zm-.99 3.23c1.534 0 2.826.544 3.846 1.632 1.02 1.054 1.53 2.38 1.53 3.944 0 1.53-.51 2.856-1.53 3.944-1.02 1.054-2.312 1.598-3.842 1.598a5.75 5.75 0 0 1-4.965-2.958V45.61a5.645 5.645 0 0 1 4.961-2.992Zm20.03 13.906V43.06h5.61v-3.23h-14.93v3.23h5.648v13.464h3.672Zm12.629 0v-6.936h8.466v6.936h3.672V39.83h-3.672v6.528h-8.469V39.83h-3.669v16.694h3.672Zm16.187-8.364c0 2.618.884 4.726 2.652 6.358 1.802 1.632 3.978 2.448 6.562 2.448s4.624-.544 6.154-1.632V52.24a10.32 10.32 0 0 1-5.372 1.496c-3.4 0-5.848-1.666-6.29-4.488h12.784v-.952c0-3.026-1.051-5.78-3.536-7.548-1.224-.918-2.686-1.36-4.386-1.36-2.55 0-4.59.85-6.188 2.516-1.598 1.666-2.38 3.774-2.38 6.256Zm3.74-1.7c.238-2.176 1.972-3.978 4.658-3.978 1.36 0 2.414.408 3.196 1.224.782.816 1.156 1.734 1.19 2.754h-9.044Zm26.529-7.072c-2.584 0-4.556.918-5.95 2.72V39.83h-3.672v23.495h3.672v-9.079c1.394 1.802 3.369 2.72 5.95 2.72 2.349 0 4.284-.85 5.814-2.55 1.53-1.7 2.278-3.774 2.278-6.222 0-2.482-.748-4.556-2.278-6.256-1.53-1.7-3.471-2.55-5.814-2.55Zm-.986 3.23c1.53 0 2.822.544 3.842 1.632 1.02 1.054 1.53 2.38 1.53 3.944 0 1.53-.51 2.856-1.53 3.944-1.02 1.054-2.312 1.598-3.842 1.598a5.746 5.746 0 0 1-4.964-2.958V45.61a5.65 5.65 0 0 1 4.964-2.992Zm36.349 13.906V50.07h3.264c1.929 0 3.462-.495 4.6-1.509 1.137-1.014 1.706-2.324 1.706-3.931 0-1.608-.569-2.894-1.706-3.907-1.138-1.014-2.671-1.509-4.6-1.509h-7.714v17.31h4.45Zm0-13.55h2.943c1.311 0 2.127.618 2.127 1.706s-.841 1.731-2.127 1.731h-2.943v-3.437Zm15.789 13.55V49.23c.494-.89 1.706-1.508 3.19-1.508.469 0 .964.074 1.483.197V43.69a2.913 2.913 0 0 0-.544-.05c-.89 0-1.731.248-2.522.767-.766.495-1.31 1.039-1.607 1.607v-2.052h-4.377v12.561h4.377Zm15.875-6.28c0 1.656-1.159 2.868-2.767 2.868-1.607 0-2.769-1.212-2.769-2.868 0-1.608 1.162-2.869 2.769-2.869 1.608 0 2.767 1.261 2.767 2.869Zm2.302 4.723c1.336-1.261 2.003-2.844 2.003-4.723 0-1.88-.667-3.437-2.003-4.699-1.335-1.26-3.016-1.903-5.069-1.903-2.052 0-3.733.642-5.069 1.904a6.196 6.196 0 0 0-2.003 4.698c0 1.879.668 3.462 2.003 4.723 1.336 1.26 3.017 1.879 5.069 1.879 2.053 0 3.734-.618 5.069-1.88Z" fill="#04133A"/><path fill-rule="evenodd" clip-rule="evenodd" d="m98.226 81.251-8.59 6.015v4.828l8.59-6.07 8.577 6.07v-4.828l-8.574-6.015h-.003Z" fill="#ED1944"/><path fill-rule="evenodd" clip-rule="evenodd" d="M183.377 99.874c-1.174 0-2.281.269-3.254.763l-1.169-7.217h-2.435v19.618c.119.188.215.389.287.6.09.283.235.546.427.772a8.721 8.721 0 0 0 12.104 0c3.338-3.254 3.338-8.846 0-12.1a8.64 8.64 0 0 0-5.96-2.436Zm-85.136-.012c3.904 0 6.723 3.084 6.723 6.892v10.098h-3.418v-9.489c0-2.111-1.762-3.833-3.935-3.833a3.973 3.973 0 0 0-2.674 1.027v12.295h-3.415V93.417h2.488l.98 7.22a7.176 7.176 0 0 1 3.251-.775Zm46.988 1.941-3.084 2.228v5.777c0 1.7 1.372 3.579 3.115 3.579v3.422h-.253c-3.678 0-6.667-3.419-6.667-7.001V97.16h2.389l.714 2.773h3.511l.275 1.87Zm61.862-1.833h-3.545v11.89c-.724.659-1.611 1.286-2.618 1.286-2.17 0-3.907-1.978-3.907-4.095V99.97h-3.311v9.693c0 3.808 2.689 7.155 6.59 7.155 1.184 0 2.241-.55 3.221-1.057l.025-.012v.111c0 2.584-2.09 4.68-4.739 4.68h-1.255v3.431h1.515c4.584 0 8.024-3.635 8.024-8.108V99.97Zm-36.195 12.765a2.418 2.418 0 0 0-.714 1.7c0 .637.263 1.258.717 1.709a2.546 2.546 0 0 0 3.493 0 2.408 2.408 0 0 0 .72-1.706 2.41 2.41 0 0 0-.717-1.7 2.516 2.516 0 0 0-3.496 0l-.003-.003Zm-39.542-3.14c1.005 0 1.815.825 1.815 1.845s-.81 1.845-1.815 1.845h-5.869v3.567h6.126c2.939 0 5.322-2.423 5.322-5.412s-2.38-5.412-5.322-5.412h-1.864a1.235 1.235 0 0 1-1.137-.772 1.237 1.237 0 0 1-.09-.474 1.23 1.23 0 0 1 .354-.879 1.245 1.245 0 0 1 .873-.369h4.93V99.97h-5.187c-2.614 0-4.735 2.154-4.735 4.812 0 2.658 2.121 4.813 4.735 4.813h1.864Zm-15.961 7.27a8.542 8.542 0 0 1-8.562-8.5 8.54 8.54 0 0 1 8.562-8.503 8.538 8.538 0 0 1 8.555 8.5 8.542 8.542 0 0 1-8.555 8.503Zm-4.797-8.5c0-2.631 2.151-4.767 4.797-4.767 2.643 0 4.794 2.133 4.794 4.764 0 2.627-2.151 4.763-4.794 4.763a4.786 4.786 0 0 1-4.797-4.76Zm52.02-1.753c0-3.585 2.992-6.503 6.667-6.503h.538v3.425h-.288c-1.743 0-3.493 1.378-3.493 3.078v10.219h-3.427l.003-10.219Zm-1.635-3.647a8.627 8.627 0 0 0-6.646-3.103c-4.72 0-8.562 3.74-8.562 8.345s3.842 8.611 8.562 8.611c2.272 0 4.34-.871 5.873-2.287l-2.658-2.649a4.837 4.837 0 0 1-3.215 1.215c-2.646 0-4.797-2.309-4.797-4.887 0-2.584 2.151-4.68 4.797-4.68 1.101 0 2.111.365 2.921.977l-3.616 2.952v4.225l7.341-5.594v-3.125Zm19.092 1.786v7.119c1.879 1.666 4.791 1.616 6.605-.155 1.874-1.823 1.874-4.985 0-6.812a4.881 4.881 0 0 0-6.605-.152Z" fill="#04133A"/></g><defs><clipPath id="a"><path fill="#fff" transform="translate(0 .887)" d="M0 0h309.091v136H0z"/></clipPath></defs></svg>
